X:7
T:The Heather Breeze
M:C|
R:Reel
S:phelan-1/34
L:1/8
K:G
DGBG dGBG | DFAF cFAF | DGBG dBGA | BcAB GGGG | 
DGBG dGBG | DFAB ccAF | DGBG dGBG | ABcA BGBd || 
gggf gbag | fdde fgaf | gggf gbag | fdcA BGBd | 
gggf gbag | fdde fgaf | gfga bbag | fdcA BGAF || G4|] 

